assets/icons/Outline/Scan.svg

<svg width="24" height="24" viewBox="0 0 24 24" fill="none" xmlns="http://www.w3.org/2000/svg">
<path fill-rule="evenodd" clip-rule="evenodd" d="M22.75 13.9549H1.75C1.336 13.9549 1 13.6189 1 13.2049C1 12.7909 1.336 12.4549 1.75 12.4549H22.75C23.164 12.4549 23.5 12.7909 23.5 13.2049C23.5 13.6189 23.164 13.9549 22.75 13.9549" fill="#AFB7C4"/>
<path fill-rule="evenodd" clip-rule="evenodd" d="M20.8799 9.745C20.4659 9.745 20.1299 9.409 20.1299 8.995V7.481C20.1299 5.838 18.7919 4.5 17.1469 4.5H15.9419C15.5279 4.5 15.1919 4.164 15.1919 3.75C15.1919 3.336 15.5279 3 15.9419 3H17.1469C19.6189 3 21.6299 5.011 21.6299 7.481V8.995C21.6299 9.409 21.2939 9.745 20.8799 9.745" fill="#AFB7C4"/>
<path fill-rule="evenodd" clip-rule="evenodd" d="M3.6201 9.745C3.2061 9.745 2.8701 9.409 2.8701 8.995V7.481C2.8701 5.011 4.8811 3 7.3531 3H8.5891C9.0031 3 9.3391 3.336 9.3391 3.75C9.3391 4.164 9.0031 4.5 8.5891 4.5H7.3531C5.7081 4.5 4.3701 5.838 4.3701 7.481V8.995C4.3701 9.409 4.0341 9.745 3.6201 9.745" fill="#AFB7C4"/>
<path fill-rule="evenodd" clip-rule="evenodd" d="M17.147 21.7606H15.942C15.528 21.7606 15.192 21.4246 15.192 21.0106C15.192 20.5966 15.528 20.2606 15.942 20.2606H17.147C18.792 20.2606 20.13 18.9226 20.13 17.2786V13.2036C20.13 12.7896 20.466 12.4536 20.88 12.4536C21.294 12.4536 21.63 12.7896 21.63 13.2036V17.2786C21.63 19.7496 19.619 21.7606 17.147 21.7606" fill="#AFB7C4"/>
<path fill-rule="evenodd" clip-rule="evenodd" d="M8.5889 21.7606H7.3529C4.8809 21.7606 2.8699 19.7496 2.8699 17.2786V13.2036C2.8699 12.7896 3.2059 12.4536 3.6199 12.4536C4.0339 12.4536 4.3699 12.7896 4.3699 13.2036V17.2786C4.3699 18.9226 5.7079 20.2606 7.3529 20.2606H8.5889C9.0029 20.2606 9.3389 20.5966 9.3389 21.0106C9.3389 21.4246 9.0029 21.7606 8.5889 21.7606" fill="#AFB7C4"/>
</svg>

<?xml version="1.0" encoding="utf-8"?>
<!-- Generator: Adobe Illustrator 25.0.0, SVG Export Plug-In . SVG Version: 6.00 Build 0)  -->
<svg version="1.1" id="Layer_1" xmlns="http://www.w3.org/2000/svg" xmlns:xlink="http://www.w3.org/1999/xlink" x="0px" y="0px"
	 viewBox="0 0 24 24" style="enable-background:new 0 0 24 24;" xml:space="preserve">
<style type="text/css">
	.st0{fill-rule:evenodd;clip-rule:evenodd;fill:#AFB7C4;}
</style>
<path class="st0" d="M22.8,14h-21C1.3,14,1,13.6,1,13.2c0-0.4,0.3-0.8,0.8-0.8h21c0.4,0,0.8,0.3,0.8,0.8C23.5,13.6,23.2,14,22.8,14z
	"/>
<path class="st0" d="M20.9,9.7c-0.4,0-0.8-0.3-0.8-0.8V7.5c0-1.6-1.3-3-3-3h-1.2c-0.4,0-0.8-0.3-0.8-0.8S15.5,3,15.9,3h1.2
	c2.5,0,4.5,2,4.5,4.5V9C21.6,9.4,21.3,9.7,20.9,9.7z"/>
<path class="st0" d="M3.6,9.7C3.2,9.7,2.9,9.4,2.9,9V7.5C2.9,5,4.9,3,7.4,3h1.2C9,3,9.3,3.3,9.3,3.8S9,4.5,8.6,4.5H7.4
	c-1.6,0-3,1.3-3,3V9C4.4,9.4,4,9.7,3.6,9.7z"/>
<path class="st0" d="M17.1,21.8h-1.2c-0.4,0-0.8-0.3-0.8-0.8c0-0.4,0.3-0.8,0.8-0.8h1.2c1.6,0,3-1.3,3-3v-4.1c0-0.4,0.3-0.8,0.8-0.8
	c0.4,0,0.8,0.3,0.8,0.8v4.1C21.6,19.7,19.6,21.8,17.1,21.8z"/>
<path class="st0" d="M8.6,21.8H7.4c-2.5,0-4.5-2-4.5-4.5v-4.1c0-0.4,0.3-0.8,0.8-0.8s0.8,0.3,0.8,0.8v4.1c0,1.6,1.3,3,3,3h1.2
	c0.4,0,0.8,0.3,0.8,0.8C9.3,21.4,9,21.8,8.6,21.8z"/>
</svg>
